icons/link/link-couple.svg

<svg width="14" height="14" viewBox="0 0 14 14" fill="none"
    xmlns="http://www.w3.org/2000/svg">
    <path d="M5.74695 9.25061L4.56916 9.25061C3.7524 9.25061 2.9999 8.80757 2.60364 8.09337V8.09337C2.22806 7.41647 2.22794 6.59263 2.60213 5.91496V5.91496C2.99872 5.19672 3.75512 4.74939 4.57557 4.74939H5.74695M8.24817 9.25061H9.42852C10.244 9.25061 10.9955 8.80897 11.3923 8.09655V8.09655C11.7702 7.418 11.7703 6.59109 11.3938 5.91176V5.91176C10.9967 5.19531 10.2413 4.74939 9.42212 4.74939H8.24817" stroke="red" stroke-linecap="round"/>
    <path d="M5 7H9" stroke="green" stroke-linecap="round"/>
</svg>

<svg xmlns="http://www.w3.org/2000/svg" width="14" height="14" fill="none" viewBox="0 0 14 14"><path stroke="red" stroke-linecap="round" d="M5.747 9.25H4.569c-.817 0-1.57-.442-1.965-1.157v0a2.25 2.25 0 0 1-.002-2.178v0a2.26 2.26 0 0 1 1.974-1.166h1.171m2.501 4.502h1.18c.816 0 1.567-.442 1.964-1.154v0a2.25 2.25 0 0 0 .002-2.185v0a2.26 2.26 0 0 0-1.972-1.163H8.248"/><path stroke="green" stroke-linecap="round" d="M5 7h4"/></svg>
